apps/16/video-player.svg

<?xml version="1.0" encoding="UTF-8"?>
<svg id="a" width="16" height="16" version="1.1" xmlns="http://www.w3.org/2000/svg" xmlns:cc="http://creativecommons.org/ns#" xmlns:dc="http://purl.org/dc/elements/1.1/" xmlns:rdf="http://www.w3.org/1999/02/22-rdf-syntax-ns#">
	<metadata id="c">
		<rdf:RDF>
			<cc:Work rdf:about="">
				<dc:format>image/svg+xml</dc:format>
				<dc:type rdf:resource="http://purl.org/dc/dcmitype/StillImage"/>
				<dc:title/>
			</cc:Work>
		</rdf:RDF>
	</metadata>
	<defs>
		<style id="current-color-scheme" type="text/css">.ColorScheme-Text {color:#090d11;}.ColorScheme-Background{color:#ffffff;}</style>
	</defs>
	<path id="b" d="m2.3125 1 2 2-2 2h-1.3125v9c0 0.554 0.446 1 1 1h12c0.554 0 1-0.446 1-1v-9-0.6875l-0.6875 0.6875h-1.625l1.6562-1.6562 0.375-0.34375-0.375-0.34375-1.6562-1.6562h-1.375l2 2-2 2h-1.625l1.6562-1.6562 0.375-0.34375-0.375-0.34375-1.6562-1.6562h-1.375l2 2-2 2h-1.625l1.6562-1.6562 0.375-0.34375-0.375-0.34375-1.6562-1.6562h-1.375l2 2-2 2h-1.625l1.6562-1.6562 0.375-0.34375-0.375-0.34375-1.6562-1.6562zm12.078 0.078125 0.53125 0.53125c-0.10094-0.23944-0.29181-0.43031-0.53125-0.53125zm-13.225 0.40039c-0.096304 0.15379-0.16602 0.3259-0.16602 0.52148v0.6875l0.3125 0.3125-0.3125 0.3125v1.375l1.3438-1.3438 0.375-0.34375-0.375-0.34375zm4.834 5.5215 5 3-5 3z" style="fill-opacity:.75;fill:currentColor" class="ColorScheme-Text"/>
	<path id="d" d="m2 0c-0.87762 0-1.6291 0.59239-1.8926 1.3906-0.0067461 0.019422-0.013282 0.038628-0.019531 0.058594-0.020344 0.068789-0.039953 0.13753-0.052734 0.20898-0.021119 0.10885-0.035156 0.22156-0.035156 0.3418v12c0 1.0907 0.9093 2 2 2h12c0.81803 0 1.5349-0.51068 1.8418-1.2266 0.10229-0.23863 0.1582-0.50076 0.1582-0.77344v-12c0-0.25703-0.05307-0.50311-0.14453-0.73047-0.0058-0.016093-0.0051-0.032908-0.01172-0.048828-0.0028-0.00666-0.01034-0.00942-0.01367-0.015625-0.20365-0.45933-0.57582-0.8315-1.0352-1.0352-0.0062-0.003326-9e-3 -0.010865-0.01563-0.013672-0.01526-0.006382-0.03145-0.006141-0.04687-0.011719-0.22783-0.091903-0.47475-0.14453-0.73242-0.14453zm0.3125 1h1.375l1.6562 1.6562 0.375 0.34375-0.375 0.34375-1.6562 1.6562h1.625l2-2-2-2h1.375l1.6562 1.6562 0.375 0.34375-0.375 0.34375-1.6562 1.6562h1.625l2-2-2-2h1.375l1.6562 1.6562 0.375 0.34375-0.375 0.34375-1.6562 1.6562h1.625l2-2-2-2h1.375l1.6562 1.6562 0.375 0.34375-0.375 0.34375-1.6562 1.6562h1.625l0.6875-0.6875v9.6875c0 0.554-0.446 1-1 1h-12c-0.554 0-1-0.446-1-1v-9h1.3125l2-2zm12.078 0.078125c0.23944 0.10094 0.43031 0.29181 0.53125 0.53125zm-13.225 0.40039 1.1777 1.1777 0.375 0.34375-0.375 0.34375-1.3438 1.3438v-1.375l0.3125-0.3125-0.3125-0.3125v-0.6875c0-0.10867 0.028777-0.20883 0.060547-0.30664 0.02769-0.073369 0.062438-0.14279 0.10352-0.20898 0.00108-0.00174 8.679e-4 -0.00413 0.00195-0.00586zm4.834 5.5215v6l5-3z" style="fill-opacity:.5;fill:currentColor" class="ColorScheme-Background"/>
</svg>

<?xml version="1.0" encoding="UTF-8" standalone="no"?>
<!-- Created with Inkscape (http://www.inkscape.org/) -->

<svg
   xmlns:dc="http://purl.org/dc/elements/1.1/"
   xmlns:cc="http://creativecommons.org/ns#"
   xmlns:rdf="http://www.w3.org/1999/02/22-rdf-syntax-ns#"
   xmlns:svg="http://www.w3.org/2000/svg"
   xmlns="http://www.w3.org/2000/svg"
   xmlns:sodipodi="http://sodipodi.sourceforge.net/DTD/sodipodi-0.dtd"
   xmlns:inkscape="http://www.inkscape.org/namespaces/inkscape"
   version="1.1"
   width="16"
   height="16"
   id="svg13094"
   inkscape:version="0.48.4 r9939"
   sodipodi:docname="gnome-media-player-large.svg">
  <sodipodi:namedview
     pagecolor="#ffffff"
     bordercolor="#666666"
     borderopacity="1"
     objecttolerance="10"
     gridtolerance="10"
     guidetolerance="10"
     inkscape:pageopacity="0"
     inkscape:pageshadow="2"
     inkscape:window-width="1920"
     inkscape:window-height="1025"
     id="namedview6"
     showgrid="true"
     inkscape:snap-bbox="true"
     inkscape:bbox-paths="true"
     inkscape:bbox-nodes="true"
     inkscape:snap-bbox-edge-midpoints="true"
     inkscape:snap-bbox-midpoints="true"
     inkscape:object-paths="true"
     inkscape:snap-intersection-paths="true"
     inkscape:object-nodes="true"
     inkscape:snap-smooth-nodes="true"
     inkscape:snap-midpoints="true"
     inkscape:snap-object-midpoints="true"
     inkscape:snap-center="true"
     inkscape:zoom="41.7193"
     inkscape:cx="8.0505164"
     inkscape:cy="8.0516408"
     inkscape:window-x="-2"
     inkscape:window-y="32"
     inkscape:window-maximized="1"
     inkscape:current-layer="svg13094">
    <inkscape:grid
       type="xygrid"
       id="grid2983" />
  </sodipodi:namedview>
  <defs
     id="defs7" />
  <metadata
     id="metadata13099">
    <rdf:RDF>
      <cc:Work
         rdf:about="">
        <dc:format>image/svg+xml</dc:format>
        <dc:type
           rdf:resource="http://purl.org/dc/dcmitype/StillImage" />
        <dc:title />
      </cc:Work>
    </rdf:RDF>
  </metadata>
  <path
     sodipodi:nodetypes="cccccccccccccccccccccccccccccccccccccccccccccccccccccccc"
     inkscape:connector-curvature="0"
     id="path2998"
     d="m 2.3125,1 2,2 -2,2 L 1,5 1,15 15,15 15,5 15,4.3125 14.3125,5 12.6875,5 14.34375,3.34375 14.71875,3 14.34375,2.65625 12.6875,1 l -1.375,0 2,2 -2,2 L 9.6875,5 11.34375,3.34375 11.71875,3 11.34375,2.65625 9.6875,1 l -1.375,0 2,2 -2,2 L 6.6875,5 8.34375,3.34375 8.71875,3 8.34375,2.65625 6.6875,1 l -1.375,0 2,2 -2,2 L 3.6875,5 5.34375,3.34375 5.71875,3 5.34375,2.65625 3.6875,1 z m 12,0 L 15,1.6875 15,1 z M 1,1.3125 1,2.6875 1.3125,3 1,3.3125 1,4.6875 2.34375,3.34375 2.71875,3 2.34375,2.65625 z M 6,7 l 5,3 -5,3 z"
     style="color:#000000;fill:#27303a;fill-opacity:0.753280819999999968;fill-rule:nonzero;stroke:none;stroke-width:4;marker:none;visibility:visible;display:inline;overflow:visible;enable-background:accumulate" />
  <path
     style="font-size:medium;font-style:normal;font-variant:normal;font-weight:normal;font-stretch:normal;text-indent:0;text-align:start;text-decoration:none;line-height:normal;letter-spacing:normal;word-spacing:normal;text-transform:none;direction:ltr;block-progression:tb;writing-mode:lr-tb;text-anchor:start;baseline-shift:baseline;color:#000000;fill:#f1f3f5;fill-opacity:0.90288714000000003;fill-rule:nonzero;stroke:none;stroke-width:2;marker:none;visibility:visible;display:inline;overflow:visible;enable-background:accumulate;font-family:Sans;-inkscape-font-specification:Sans"
     d="M 0 0 L 0 0.09375 L 0 1.3125 L 0 2.6875 L 0 2.90625 L 0 3.09375 L 0 3.3125 L 0 4 L 0 4.6875 L 0 5 L 0 7.09375 L 0 15 L 0 16 L 1 16 L 16 16 L 16 4.09375 L 16 3.1875 L 16 2.8125 L 16 1.90625 L 16 1.6875 L 16 0 L 1.125 0 L 0 0 z M 2.3125 1 L 3.6875 1 L 5.34375 2.65625 L 5.71875 3 L 5.34375 3.34375 L 3.6875 5 L 5.3125 5 L 7.3125 3 L 5.3125 1 L 6.6875 1 L 8.34375 2.65625 L 8.71875 3 L 8.34375 3.34375 L 6.6875 5 L 8.3125 5 L 10.3125 3 L 8.3125 1 L 9.6875 1 L 11.34375 2.65625 L 11.71875 3 L 11.34375 3.34375 L 9.6875 5 L 11.3125 5 L 13.3125 3 L 11.3125 1 L 12.6875 1 L 14.34375 2.65625 L 14.71875 3 L 14.34375 3.34375 L 12.6875 5 L 14.3125 5 L 15 4.3125 L 15 5 L 15 15 L 1 15 L 1 5 L 2.3125 5 L 4.3125 3 L 2.3125 1 z M 14.3125 1 L 15 1 L 15 1.6875 L 14.3125 1 z M 1 1.3125 L 2.34375 2.65625 L 2.71875 3 L 2.34375 3.34375 L 1 4.6875 L 1 3.3125 L 1.3125 3 L 1 2.6875 L 1 1.3125 z M 6 7 L 6 13 L 11 10 L 6 7 z "
     id="path2992" />
  <path
     sodipodi:nodetypes="ccc"
     inkscape:connector-curvature="0"
     d="M 8.0000002,-6 11,-9 8.0000002,-12"
     style="fill:none;stroke:#000000;stroke-width:1px;stroke-linecap:butt;stroke-linejoin:miter;stroke-opacity:1"
     id="path3067" />
  <path
     sodipodi:nodetypes="ccc"
     inkscape:connector-curvature="0"
     d="m 5.0000002,-6 3,-3 -3,-3"
     style="fill:none;stroke:#000000;stroke-width:1px;stroke-linecap:butt;stroke-linejoin:miter;stroke-opacity:1"
     id="path3069" />
  <path
     sodipodi:nodetypes="ccc"
     inkscape:connector-curvature="0"
     d="m 2.0000002,-6 3,-3 -3,-3"
     style="fill:none;stroke:#000000;stroke-width:1px;stroke-linecap:butt;stroke-linejoin:miter;stroke-opacity:1"
     id="path3071" />
  <path
     sodipodi:nodetypes="ccc"
     inkscape:connector-curvature="0"
     d="M -0.99999984,-6 2.0000002,-9 -0.99999984,-12"
     style="fill:none;stroke:#000000;stroke-width:1px;stroke-linecap:butt;stroke-linejoin:miter;stroke-opacity:1"
     id="path3073" />
  <path
     sodipodi:nodetypes="ccc"
     inkscape:connector-curvature="0"
     d="m -3.9999998,-6 2.99999996,-3 -2.99999996,-3"
     style="fill:none;stroke:#000000;stroke-width:1px;stroke-linecap:butt;stroke-linejoin:miter;stroke-opacity:1"
     id="path3075" />
  <path
     style="fill:none;stroke:#000000;stroke-width:1px;stroke-linecap:butt;stroke-linejoin:miter;stroke-opacity:1"
     d="m 11,-6 3,-3 -3,-3"
     inkscape:connector-curvature="0"
     sodipodi:nodetypes="ccc"
     id="path13" />
</svg>
